build/security/SafetyCertificateSolid.svg

<svg xmlns="http://www.w3.org/2000/svg" fill="none" viewBox="0 0 24 24" focusable="false"><path d="M0 0H24V24H0z"/><path fill="#74767B" fill-rule="evenodd" d="M4 5.92261C4 5.32617 4.40576 4.80615 4.98486 4.66138L11.2725 3.0896C11.75 2.97021 12.25 2.97021 12.7275 3.0896L19.0151 4.66138C19.5942 4.80615 20 5.32617 20 5.92261L20 11.1531C20 14.2561 18.4014 17.1404 15.77 18.7852L12.689 20.7107C12.2676 20.9741 11.7324 20.9741 11.311 20.7107L8.22998 18.7852C5.59863 17.1404 4 14.2561 4 11.1531L4 5.92261ZM10.6709 7.5481C10.417 7.802 10.417 8.21362 10.6709 8.46729C10.9248 8.72119 11.3359 8.72119 11.5898 8.46729L12.2036 7.85376C12.9419 7.11572 14.1387 7.11572 14.877 7.85376C15.6152 8.59204 15.6152 9.78906 14.877 10.5273L14.2632 11.1409C14.0098 11.3945 14.0098 11.8062 14.2632 12.0601C14.5171 12.314 14.9287 12.314 15.1826 12.0601L15.7964 11.4465C17.042 10.2007 17.042 8.18042 15.7964 6.93457C14.5503 5.68872 12.5303 5.68872 11.2842 6.93457L10.6709 7.5481ZM13.4395 10.21C13.6934 9.9563 13.6934 9.54468 13.4399 9.29077C13.186 9.03687 12.7744 9.03687 12.5205 9.29077L10.4771 11.3342C10.2231 11.5881 10.2231 11.9998 10.4771 12.2537C10.7305 12.5073 11.1421 12.5073 11.396 12.2537L13.4395 10.21ZM8.11279 14.6028C6.88379 13.3386 6.89746 11.3213 8.14453 10.0742L8.78223 9.43628C9.03613 9.18262 9.44775 9.18262 9.70166 9.43628C9.95557 9.69019 9.95557 10.1018 9.70166 10.3557L9.06396 10.9934C8.32031 11.7371 8.31104 12.9395 9.04248 13.6943C9.78125 14.4294 10.9756 14.4285 11.7129 13.6912L12.375 13.0291C12.6289 12.7751 13.0405 12.7751 13.2944 13.0291C13.5483 13.283 13.5483 13.6943 13.2944 13.9482L12.6323 14.6104C11.3862 15.8562 9.3584 15.8486 8.11279 14.6028Z"/></svg>

<svg xmlns="http://www.w3.org/2000/svg" fill="none" viewBox="0 0 24 24" focusable="false"><path fill="#74767B" fill-rule="evenodd" d="M4 5.92c0-.6.4-1.12.98-1.26l6.29-1.58c.48-.11.98-.11 1.45 0l6.29 1.58c.58.14.99.66.99 1.26v5.23c0 3.1-1.6 5.99-4.23 7.63l-3.09 1.93a1.3 1.3 0 0 1-1.37 0l-3.09-1.93A8.99 8.99 0 0 1 4 11.15zm6.67 1.62a.64.64 0 0 0 0 .92c.25.26.66.26.91 0l.62-.61c.74-.74 1.93-.74 2.67 0s.74 1.93 0 2.67l-.61.62a.64.64 0 0 0 0 .92c.25.25.66.25.92 0l.61-.62a3.18 3.18 0 0 0 0-4.51 3.18 3.18 0 0 0-4.51 0zm2.76 2.67a.64.64 0 0 0 0-.92.63.63 0 0 0-.91 0l-2.05 2.04c-.25.25-.25.66 0 .92.26.25.67.25.92 0zM8.11 14.6a3.223 3.223 0 0 1 .03-4.53l.64-.64c.25-.25.66-.25.92 0 .25.26.25.67 0 .92l-.64.64c-.74.74-.75 1.94-.02 2.7.74.73 1.93.73 2.67 0l.66-.67c.25-.25.67-.25.92 0 .25.26.25.67 0 .92l-.66.67a3.21 3.21 0 0 1-4.52-.01"/></svg>
